build/system/OkSendSolid.svg

<svg xmlns="http://www.w3.org/2000/svg" fill="none" viewBox="0 0 24 24" focusable="false"><path d="M0 0H24V24H0z"/><path fill="#74767B" fill-rule="evenodd" d="M12 3C7.02944 3 3 7.02944 3 12C3 16.9706 7.02944 21 12 21C16.9706 21 21 16.9706 21 12C21 7.02944 16.9706 3 12 3ZM10.0396 15.6885C10.3196 15.9685 10.7796 15.9585 11.0496 15.6685C12.6058 13.9785 14.1512 12.2221 15.7432 10.5775L15.7272 12.7299C15.7188 13.0836 15.9995 13.3832 16.3604 13.3985C16.5514 13.4025 16.7199 13.329 16.8451 13.1997C16.9564 13.0848 17.0248 12.9422 17.029 12.7653L17.0634 9.02687C17.0779 8.60939 16.733 8.27554 16.3162 8.30352L12.593 8.37846C12.2328 8.40552 11.962 8.71402 11.9819 9.06729C12.0089 9.42753 12.3105 9.70551 12.6707 9.67844L14.8043 9.67843C13.3391 11.1919 11.9451 12.7779 10.5196 14.3285L8.11955 11.9285C7.86955 11.6785 7.44955 11.6785 7.19955 11.9285C6.94955 12.1785 6.94955 12.5985 7.19955 12.8485L10.0396 15.6885Z"/></svg>

<svg xmlns="http://www.w3.org/2000/svg" fill="none" viewBox="0 0 24 24" focusable="false"><path fill="#74767B" fill-rule="evenodd" d="M12 3c-4.98 0-9 4.02-9 9 0 4.97 4.02 9 9 9a9 9 0 0 0 9-9c0-4.98-4.03-9-9-9m-1.97 12.68c.28.28.74.27 1.01-.02 1.56-1.69 3.11-3.44 4.7-5.09l-.02 2.15c-.01.36.27.66.64.67.19.01.35-.07.48-.2.11-.11.18-.25.18-.43l.04-3.74a.696.696 0 0 0-.75-.72l-3.72.07c-.36.03-.63.34-.61.69.02.36.33.64.69.61h2.13c-1.47 1.52-2.86 3.1-4.29 4.65l-2.4-2.4a.66.66 0 0 0-.92 0c-.25.25-.25.67 0 .92z"/></svg>
